X:3
T:Craigie Hall
R:strathspey
O:19th century Scotland
D:Allie Bennett, It's About Time
Z:Paul Stewart Cranford (P.S.C.), <http://www.cranfordpub.com>
L:1/8
M:C
Q:288
K:D
B|A<D B/A/G/F/ G<EE>F|A>A B/A/G/F/ AA|(3Bcd (3AGF G<EE>c|d>BA<F A<dd:|
||g|f>d f/g/a/f/ g<ee>g|f>d f/g/a/f/ d>af<a|(3bag (3agf g<ee<f|d>BA<F Ag|
f>d f/g/a/f/ g<ee>c|(3def (3edc (3Bcd (3AGF|(3GAB (3AGF G>EE>c|d>BA<F A<dd|]
